assets/icons/innovation.svg

<svg width="23" height="51" viewBox="0 0 23 51" fill="none" xmlns="http://www.w3.org/2000/svg">
<path d="M12.9509 0.939087L12.7728 2.47343L13.1044 2.51847L13.9075 2.71364H13.9267L14.0253 2.74967L14.4419 1.28139L14.2857 1.22734L14.2254 1.21233L13.3648 1.00514L13.3045 0.990132L12.9509 0.939087ZM9.97173 0.948095L9.54417 1.00815L9.48661 1.02316L8.62601 1.23334L8.56571 1.24836L8.48075 1.27838L8.90009 2.74667L8.97683 2.71664H8.98779L9.75795 2.53048L10.1581 2.47343L9.97173 0.948095ZM5.75368 2.56951L5.26582 2.90881L5.21923 2.94184L4.55322 3.48532L5.39464 4.71939L6.01131 4.20895L6.02776 4.19394L6.49643 3.87566L5.75368 2.56951ZM17.1663 2.61155L16.4262 3.90268L16.8374 4.18192L16.8511 4.19694L17.4705 4.70138L17.4814 4.71639L17.4951 4.73141L17.6048 4.56626L18.4078 3.56639L18.3749 3.53636L18.3311 3.49432L17.6377 2.93283L17.5911 2.8968L17.1663 2.61155ZM11.4463 3.89968C7.05001 3.89968 3.4761 7.8465 3.4761 12.6884C3.4761 15.3489 4.69578 17.1451 5.77287 18.9278C6.40859 19.98 7.00694 21.0416 7.3954 22.3508L6.87191 22.0716H6.86643L6.44435 21.7923L5.71805 23.1075L6.14561 23.3897L6.20043 23.4198L7.01169 23.8581L7.50503 22.7532C7.70324 23.5399 7.8274 24.4173 7.83393 25.4375C7.82605 25.5074 7.82697 25.5781 7.83667 25.6477V29.383C7.83673 29.4334 7.84132 29.4837 7.85037 29.5331C7.85037 29.5341 7.85037 29.5351 7.85037 29.5361C7.87411 29.6612 7.92591 29.7778 8.00111 29.8754C8.00111 29.8764 8.00111 29.8774 8.00111 29.8784C8.06706 29.9641 8.14931 30.033 8.24211 30.0802C8.3349 30.1274 8.43599 30.1518 8.5383 30.1516H10.7912V37.1117C9.56669 34.2806 6.95336 32.3431 3.95573 32.3406C3.95482 32.3406 3.95391 32.3406 3.95299 32.3406C3.05715 32.3406 2.16952 32.5234 1.33008 32.866C1.18368 32.9258 1.05969 33.0375 0.977773 33.1833C0.895854 33.329 0.860688 33.5006 0.877849 33.6707C1.31239 37.8625 4.56148 41.0421 8.41223 41.0452C8.41314 41.0452 8.41406 41.0452 8.41497 41.0452C9.22513 41.0452 10.024 40.8794 10.7912 40.5978V50.02H12.1945V44.1949C12.9546 44.4735 13.746 44.6364 14.5488 44.6393C14.5497 44.6393 14.5506 44.6393 14.5516 44.6393C18.3662 44.6393 21.5843 41.4893 22.0147 37.3369C22.0325 37.1663 21.9976 36.9941 21.9157 36.8477C21.8337 36.7013 21.7093 36.5892 21.5624 36.5292C20.7309 36.1898 19.8516 36.0132 18.9642 36.0098C18.9624 36.0098 18.9605 36.0098 18.9587 36.0098C15.9925 36.0098 13.4084 37.9266 12.1945 40.7269V30.1516H14.3542C14.3781 30.151 14.4018 30.149 14.4255 30.1456C14.472 30.1407 14.5179 30.1306 14.5625 30.1156C14.7053 30.067 14.8301 29.9697 14.9188 29.8379C15.0076 29.7061 15.0556 29.5467 15.0559 29.383V25.6447C15.0661 25.5731 15.067 25.5004 15.0586 25.4285C15.066 24.3858 15.1943 23.49 15.4012 22.6901L15.9192 23.8371L16.7305 23.3987L16.7853 23.3657L17.1471 23.1225L16.418 21.8104L16.0809 22.0355L15.4971 22.3508C15.8856 21.0416 16.4839 19.98 17.1197 18.9278C18.1967 17.1451 19.4164 15.3489 19.4164 12.6884C19.4164 7.8465 15.8425 3.89968 11.4463 3.89968ZM11.4463 5.43702C15.0787 5.43702 18.0131 8.67144 18.0131 12.6884C18.0131 14.84 17.0528 16.2547 15.9493 18.0811C14.9443 19.7446 13.9688 21.8435 13.7841 24.7529H12.1479V19.8526C12.1492 19.7508 12.132 19.6497 12.0974 19.5551C12.0627 19.4606 12.0112 19.3746 11.9459 19.302C11.8807 19.2295 11.8029 19.1719 11.7171 19.1326C11.6313 19.0933 11.5392 19.073 11.4463 19.073C11.3533 19.073 11.2612 19.0933 11.1754 19.1326C11.0897 19.1719 11.0119 19.2295 10.9466 19.302C10.8813 19.3746 10.8298 19.4606 10.7952 19.5551C10.7605 19.6497 10.7433 19.7508 10.7446 19.8526V24.7529H9.10838C8.92372 21.8435 7.94822 19.7446 6.94317 18.0811C5.83968 16.2547 4.87937 14.84 4.87937 12.6884C4.87937 8.67144 7.81384 5.43702 11.4463 5.43702ZM2.47846 5.90844L2.10023 6.52998L2.06734 6.58102L1.71652 7.27763L2.94165 8.02229L3.27602 7.36171L3.64329 6.77319L2.47846 5.90844ZM20.4305 5.94146L19.2712 6.80622L19.5891 7.32267L19.9701 8.06132L21.1924 7.30766L20.8033 6.54499L20.7704 6.49095L20.4305 5.94146ZM0.702439 10.3493L0.696958 10.3673L0.683254 10.4334L0.537993 11.4123L0.529771 11.4783L0.494141 12.0008L1.89467 12.1149L1.9303 11.6104L2.05638 10.7457L2.05912 10.7277H2.06186L2.06734 10.6886L1.61238 10.6015L0.702439 10.3493ZM22.2093 10.4454L20.8252 10.7006L20.9595 11.5804L21.0006 12.1569L22.4011 12.0338L22.3573 11.4303L22.349 11.3642L22.2093 10.4454ZM2.0646 14.9674L0.685995 15.2556L0.727106 15.5018L0.74081 15.5649L0.968294 16.4777L0.987479 16.5407L1.09437 16.859L2.41268 16.3306L2.30853 16.0183L2.30579 16.0003L2.10297 15.1866L2.0646 14.9674ZM20.8197 15.0154L20.795 15.1595L20.5867 16.0123L20.5813 16.0333L20.4689 16.3666L21.7872 16.892L21.9187 16.4957L21.9352 16.4326L22.1627 15.5198L22.1736 15.4568L22.201 15.2886L20.8197 15.0154ZM3.61314 18.8798L2.45653 19.7536L2.64016 20.0478L2.67579 20.0989L3.22395 20.8315L3.26506 20.8825L3.41032 21.0477L4.41893 19.9757L4.28463 19.8226L4.27092 19.8076L3.78306 19.153L3.61314 18.8798ZM19.2602 18.9158L19.1286 19.126L19.1177 19.144L18.6271 19.8016L18.4489 20.0058L19.4603 21.0717L19.6576 20.8465L19.696 20.7985L20.2414 20.0628L20.277 20.0118L20.4195 19.7806L19.2602 18.9158ZM9.23994 26.2903H11.3174C11.3981 26.3059 11.4807 26.3059 11.5614 26.2903H13.6526V28.6143H9.23994V26.2903ZM3.95573 33.8779H3.95847C6.88217 33.8779 9.28315 36.1479 9.90595 39.2106C9.41337 39.3489 8.92235 39.5058 8.41223 39.5078C5.48645 39.5078 3.08409 37.2402 2.46201 34.1752C2.95459 34.0368 3.44561 33.8801 3.95573 33.8779ZM18.9587 37.5471H18.9615C19.4632 37.5471 19.9459 37.7061 20.4305 37.8414C19.8122 40.8646 17.4418 43.0983 14.5543 43.102C14.0517 43.102 13.5679 42.9462 13.0825 42.8107C13.7008 39.7874 16.0712 37.551 18.9587 37.5471Z" fill="white"/>
</svg>

<svg xmlns="http://www.w3.org/2000/svg" width="23" height="51" fill="none" xmlns:v="https://vecta.io/nano"><path d="M12.95.94l-.178 1.534.332.045.803.195h.02l.1.036.417-1.468-.156-.054-.06-.015-.92-.222-.354-.05zm-2.98.01l-.428.06-.058.015-.92.225-.085.03.42 1.468.077-.03h.01l.77-.186.4-.057L9.972.948zM5.754 2.57l-.488.34-.047.033-.666.543.84 1.234.617-.5.016-.015.47-.318-.743-1.306zm11.413.042l-.74 1.29.41.28.014.015.62.504.01.015.014.015.1-.165.803-1-.033-.03-.044-.042-.693-.56-.047-.036-.425-.285zM11.446 3.9c-4.396 0-7.97 3.947-7.97 8.79 0 2.66 1.22 4.457 2.297 6.24.636 1.052 1.234 2.114 1.623 3.423l-.523-.28h-.005l-.422-.28-.726 1.315.428.282.055.03.81.438.493-1.105c.198.787.322 1.664.33 2.684a.84.84 0 0 0 .003.21v3.735a.84.84 0 0 0 .014.15c.024.128.076.245.15.342a.69.69 0 0 0 .241.205.65.65 0 0 0 .296.071h2.253v6.96c-1.225-2.83-3.838-4.77-6.835-4.77-.9 0-1.786.183-2.626.525a.72.72 0 0 0-.352.317.83.83 0 0 0-.1.487c.435 4.192 3.684 7.37 7.534 7.375.813 0 1.612-.166 2.38-.447v9.422h1.403v-5.825c.76.28 1.552.442 2.354.444 3.817 0 7.035-3.15 7.466-7.302a.83.83 0 0 0-.099-.489.72.72 0 0 0-.353-.319c-.832-.34-1.71-.516-2.598-.52-2.972 0-5.556 1.917-6.77 4.717V30.152h2.16a.61.61 0 0 0 .071-.006.64.64 0 0 0 .137-.03c.143-.05.268-.146.356-.278a.82.82 0 0 0 .137-.455v-3.738a.84.84 0 0 0 .003-.216c.007-1.043.136-1.94.343-2.738l.518 1.147.81-.438.055-.033.362-.243-.73-1.312-.337.225-.584.315c.39-1.31.987-2.37 1.623-3.423 1.077-1.783 2.297-3.58 2.297-6.24 0-4.842-3.574-8.79-7.97-8.79zm0 1.537c3.632 0 6.567 3.234 6.567 7.25 0 2.152-.96 3.566-2.064 5.393-1.005 1.663-1.98 3.762-2.165 6.672h-1.636v-4.9c.001-.102-.016-.203-.05-.297a.78.78 0 0 0-.152-.253.7.7 0 0 0-.229-.169.65.65 0 0 0-.542 0c-.086.04-.163.097-.23.17a.78.78 0 0 0-.151.253c-.035.095-.052.196-.05.297v4.9H9.108c-.185-2.91-1.16-5.008-2.165-6.672-1.103-1.826-2.064-3.24-2.064-5.393 0-4.017 2.934-7.25 6.567-7.25zm-8.968.47L2.1 6.53l-.033.05-.35.697 1.225.745.334-.66.367-.59-1.165-.865zm17.952.033l-1.16.865.318.516.38.74 1.222-.754-.39-.763-.033-.054-.34-.55zM.702 10.35l-.005.018-.014.066-.145.98-.008.066L.494 12l1.4.114.036-.505.13-.883h.003l.005-.04-.455-.087-.9-.252zm21.507.096l-1.384.255.134.88.04.577 1.4-.123-.044-.603-.008-.066-.14-.92zM2.065 14.967l-1.38.288.04.246.014.063.227.913.02.063.107.318 1.318-.528-.104-.312L2.306 16l-.203-.814-.038-.22zm18.755.048l-.025.144-.208.853-.005.02-.112.333 1.318.525.132-.396.016-.063.228-.913.01-.063.027-.168-1.38-.273zM3.613 18.88l-1.157.874.184.294.036.05.548.733.04.05.145.165 1.01-1.072-.134-.153-.014-.015-.488-.655-.17-.273zm15.647.036l-.132.2-.01.018-.49.658-.178.204 1.01 1.066.197-.225.038-.048.545-.736.036-.05.142-.23-1.16-.865zM9.24 26.3h2.077a.64.64 0 0 0 .244 0h2.09v2.324H9.24V26.3zm-5.284 7.588h.003c2.924 0 5.325 2.27 5.947 5.333-.493.138-.984.295-1.494.297-2.926 0-5.328-2.268-5.95-5.333.493-.138.984-.295 1.494-.297zm15.003 3.67h.003c.502 0 .984.16 1.47.294-.618 3.023-2.99 5.257-5.876 5.26-.503 0-.986-.156-1.472-.29.618-3.023 2.99-5.26 5.876-5.264z" fill="#fff"/></svg>
